docs/.gitbook/assets/icon-remove-person-16@dark.svg

<svg width="32" height="32" viewBox="0 0 16 16" fill="none" xmlns="http://www.w3.org/2000/svg">
<rect x="0" y="0" width="16" height="16" fill="#181c1f"/>
<path fill-rule="evenodd" clip-rule="evenodd" d="M8.00011 2.5C7.03361 2.5 6.25011 3.2835 6.25011 4.25C6.25011 5.2165 7.03361 6 8.00011 6C8.96661 6 9.75011 5.2165 9.75011 4.25C9.75011 3.2835 8.96661 2.5 8.00011 2.5ZM4.75011 4.25C4.75011 2.45507 6.20519 1 8.00011 1C9.79504 1 11.2501 2.45507 11.2501 4.25C11.2501 6.04493 9.79504 7.5 8.00011 7.5C6.20519 7.5 4.75011 6.04493 4.75011 4.25ZM6.25011 10C4.78398 10 3.18802 10.8904 2.54723 12.5599C2.4624 12.7809 2.50847 12.9783 2.66811 13.1558C2.84312 13.3505 3.14856 13.5 3.49903 13.5H7.25011C7.66433 13.5 8.00011 13.8358 8.00011 14.25C8.00011 14.6642 7.66433 15 7.25011 15H3.49903C2.74494 15 2.02647 14.6857 1.55268 14.1587C1.06351 13.6147 0.835863 12.8326 1.14684 12.0224C2.03212 9.71593 4.22655 8.5 6.25011 8.5H7.25011C7.66433 8.5 8.00011 8.83579 8.00011 9.25C8.00011 9.66421 7.66433 10 7.25011 10H6.25011ZM9.00011 11.75C9.00011 11.3358 9.3359 11 9.75011 11H13.2501C13.6643 11 14.0001 11.3358 14.0001 11.75C14.0001 12.1642 13.6643 12.5 13.2501 12.5H9.75011C9.3359 12.5 9.00011 12.1642 9.00011 11.75Z" fill="#fff"/>
</svg>

<svg xmlns="http://www.w3.org/2000/svg" width="32" height="32" fill="none" viewBox="0 0 16 16"><path fill="#181c1f" d="M0 0h16v16H0z"/><path fill="#fff" fill-rule="evenodd" d="M8 2.5A1.75 1.75 0 1 0 8 6a1.75 1.75 0 0 0 0-3.5M4.75 4.25a3.25 3.25 0 1 1 6.5 0 3.25 3.25 0 0 1-6.5 0M6.25 10c-1.466 0-3.062.89-3.703 2.56-.085.22-.039.418.121.596.175.194.48.344.831.344H7.25a.75.75 0 0 1 0 1.5H3.5c-.754 0-1.473-.314-1.946-.841-.49-.544-.717-1.326-.406-2.137C2.032 9.716 4.227 8.5 6.25 8.5h1a.75.75 0 1 1 0 1.5zM9 11.75a.75.75 0 0 1 .75-.75h3.5a.75.75 0 0 1 0 1.5h-3.5a.75.75 0 0 1-.75-.75" clip-rule="evenodd"/></svg>
